src/assets/planets/Venus.svg

<svg  viewBox="0 0 369 369" fill="none" xmlns="http://www.w3.org/2000/svg">
<g clip-path="url(#clip0_47_244)">
<path d="M314.48 314.483C386.422 242.541 386.422 125.899 314.48 53.9568C242.537 -17.9856 125.896 -17.9856 53.9532 53.9568C-17.9892 125.899 -17.9892 242.541 53.9532 314.483C125.896 386.426 242.537 386.426 314.48 314.483Z" fill="url(#paint0_radial_47_244)"/>
<path d="M313 143.91C312.762 144.061 312.48 144.128 312.199 144.1C311.919 144.073 311.655 143.954 311.45 143.76C309.45 146.12 308.45 149.76 311.06 151.6C313.06 152.99 315.4 153.29 316.85 150.93C317.458 149.988 317.861 148.929 318.033 147.821C318.206 146.714 318.143 145.582 317.85 144.5C317 142.08 314.71 142.9 313 143.91Z" fill="url(#paint1_radial_47_244)"/>
<path opacity="0.3" d="M324.16 190.27C324.47 182.65 338.43 182.1 343.55 181.71C349.8 181.2 356.06 181.08 362.33 180.8C364.15 180.72 366.33 180.8 368.4 180.62C367.985 158.005 363.387 135.662 354.84 114.72C344.2 117.89 330.66 121.78 323.96 114.72C318.58 109.01 320.79 100.55 322.71 93.8301C325.13 85.3801 325.27 76.9801 327.86 68.9301C326.1 66.7301 324.28 64.5701 322.43 62.4501C321.735 63.3175 321.157 64.2723 320.71 65.2901C318.39 70.6401 318.4 76.6701 318.45 82.3901C318.55 94.0001 319.55 105.61 309.7 113.56C306.61 116.05 302.82 117.99 300.28 121.1C295.87 126.51 297.8 131.86 299.75 137.73C302.04 144.65 302.89 150.33 300.67 157.42C297.55 167.42 290.67 174.08 280.18 175.7C270.36 177.22 260.29 175.48 250.53 177.21C245.36 178.12 240.04 180.08 237.14 184.78C233.36 190.9 235.73 196.86 233.71 203.21C229.97 214.98 211.71 220.53 200.87 221.12C189.58 221.73 177.29 218.92 166.37 222.67C159.619 225.001 153.381 228.614 148 233.31C139.15 240.96 131.75 250.74 121.68 256.88C110.76 263.53 97.96 264.78 85.63 261.64C71.71 258.11 59.92 250.17 47.13 244C34 237.65 21.43 235.55 8.57001 239.85C22.2911 282.99 51.375 319.589 90.3 342.7C91.4473 342.354 92.6123 342.071 93.79 341.85C100.79 340.37 107.87 339.3 113.42 334.28C119.9 328.39 121.74 320.28 121.89 311.76C121.99 306.76 121.8 302.22 124.64 297.88C131.86 286.76 151.04 283.77 162.64 280.33C173.46 277.11 185.77 278.41 196.23 274.33C210.1 268.88 207.92 252.77 213.45 241.59C215.98 236.48 219.97 232.99 224.62 229.82C231.895 225.02 238.317 219.037 243.62 212.12C248.47 205.78 253.43 200.72 260.71 197.24C268.64 193.44 277.41 192.16 285.27 188.04C290.03 185.55 295.2 182.04 300.81 182.51C305.36 182.9 309.35 187.51 311.44 191.18C313.44 194.59 313.96 198.23 315.44 201.83C318.44 209.35 324.99 209.83 331.86 209.62C338.43 209.39 343.91 210.19 348.78 215.05C352.59 218.85 356.21 223.5 361.78 224.73C362.49 224.89 363.22 225.02 363.93 225.13C364.55 222.38 365.1 219.6 365.6 216.82C361.72 214.18 358.43 210.59 354.42 208.13C346.45 203.25 323.58 204.15 324.16 190.27ZM106 328.38C105.166 328.984 104.236 329.444 103.25 329.74C103 329.82 102.73 329.82 102.48 329.74C96.34 331.45 89.48 330.2 89.85 324.58C90.23 317.74 98.78 307.72 105.95 312.78C106.583 313.241 107.16 313.775 107.67 314.37C107.907 314.272 108.168 314.249 108.419 314.304C108.669 314.36 108.897 314.491 109.07 314.68C110.174 315.737 111.019 317.034 111.54 318.47C112.87 322.84 110 326.33 106 328.38ZM108.16 300.69C101.75 299.52 89.89 293.53 93.86 285.08C96.03 280.43 100.86 279.08 106.06 278.62C109.031 277.907 112.106 277.727 115.14 278.09C115.78 278.09 116.39 277.96 116.98 277.87C117.342 277.816 117.712 277.897 118.018 278.098C118.324 278.299 118.546 278.606 118.64 278.96C120.238 279.502 121.669 280.448 122.794 281.706C123.919 282.964 124.699 284.491 125.06 286.14C127.29 295.62 116.69 302.25 108.14 300.69H108.16ZM156.16 244.18C153.75 246.05 144.99 249.71 144.38 244.18C144 240.78 147.62 236.94 150.18 235.18C150.38 235.034 150.622 234.955 150.87 234.955C151.118 234.955 151.36 235.034 151.56 235.18C153.62 233.38 156.01 232.39 158.03 234.52C160.71 237.39 158.89 242.07 156.16 244.18ZM200.49 263.57C195.23 270.42 181.63 272.57 173.89 269.69C164.95 266.4 171.03 256.13 176.67 253.24C180.855 251.085 185.354 249.604 190 248.85C190.009 248.582 190.115 248.326 190.299 248.131C190.484 247.936 190.733 247.814 191 247.79C194.87 247.17 201.05 246.91 202.95 251.42C204.79 255.75 203.24 260 200.49 263.57ZM318.14 153.75C315.04 156.75 309.73 155.65 307.56 151.97C304.85 147.42 308.73 140.35 313.64 139.04C313.832 138.984 314.035 138.972 314.232 139.005C314.43 139.039 314.617 139.117 314.78 139.234C314.943 139.35 315.077 139.502 315.172 139.678C315.267 139.854 315.321 140.05 315.33 140.25C316.483 140.056 317.666 140.312 318.636 140.965C319.605 141.618 320.287 142.619 320.54 143.76C321.48 147 320.63 151.35 318.14 153.75Z" fill="#FFEBCD"/>
<path d="M329 114.45C337 116.71 345.48 114.27 353.64 111.96C347.505 97.5857 339.561 84.0531 330 71.6901C328.48 77.8201 328.36 84.0301 326.54 90.4901C324.72 96.9501 319 111.65 329 114.45Z" fill="url(#paint2_radial_47_244)"/>
<path opacity="0.3" d="M50.11 203.63C56.11 202.32 61.86 201.36 65.47 195.89C67.26 193.18 68.89 190.57 71.47 188.56C77.54 183.82 86.47 189.79 93.14 187.3C99.43 184.97 97.96 179.87 98.58 175.15C98.64 174.6 99.31 172.15 98.32 171.57C93.77 169.07 88.41 167.44 83.13 167.92C79.5 168.25 75.05 169.69 71.37 168.68C65.48 167.08 60.37 163.68 53.99 165.11C46.21 166.91 43.45 165.11 37.85 160.01C31.48 154.18 22.5 157.46 14.78 158.13C12.27 158.35 9.04999 158.79 6.69999 157.62L1.75999 158.62C-0.62999 175.695 -0.613159 193.02 1.80999 210.09C4.69999 209.18 7.60999 208.36 10.59 207.71C22.18 205.14 33.95 205.16 45.69 204.53L50.11 203.63Z" fill="#FFEBCD"/>
<path opacity="0.3" d="M200.49 135.27C199.96 135.55 199.44 135.8 198.9 136.03C198.117 136.451 197.239 136.668 196.35 136.66C191.86 136.41 188.35 134.33 183.87 136.57C180.44 138.33 174.54 139.5 172.8 143.35C172.433 144.229 172.136 145.135 171.91 146.06C174.91 149.52 178.3 150.81 183.5 150.51C185.095 150.319 186.71 150.37 188.29 150.66C190.58 151.27 191.48 150.91 191.89 148.77C192.3 146.63 192.89 145.31 194.89 144.47C197.26 143.47 201.67 144.58 203.89 142.64C204.178 142.008 204.422 141.356 204.62 140.69C204.831 140.004 205.001 139.306 205.13 138.6C204.76 136.23 203.1 134 200.49 135.27Z" fill="#FDD193"/>
<path opacity="0.5" d="M138.25 162.25C138.183 162.372 138.085 162.473 137.965 162.544C137.845 162.614 137.709 162.651 137.57 162.65C134.079 162.759 130.699 163.905 127.86 165.94C126.15 167.21 122.4 169.22 125.4 170.81C128.467 172.453 131.872 173.367 135.35 173.48C142.74 173.66 149.8 170.54 150.51 162.64C146.58 162.54 142.36 162.13 138.25 162.25Z" fill="#9C1B1F"/>
<path opacity="0.5" d="M233 110C231.502 111.901 230.199 113.948 229.11 116.11C243.26 119.55 258.19 111.11 258.21 95.76C248.515 97.7284 239.691 102.713 233 110Z" fill="#9C1B1F"/>
<path opacity="0.5" d="M111.4 241.78L110.82 241.54L110.31 241.39C104.82 241.97 98.76 242.59 93.68 244.94C92.6722 245.785 91.9062 246.883 91.46 248.12C92.9248 249.018 94.4973 249.727 96.14 250.23C99.0043 251.215 102.116 251.215 104.98 250.23C106.55 249.73 116.49 247.55 114.64 244.85C113.769 243.626 112.669 242.584 111.4 241.78Z" fill="#9C1B1F"/>
<path opacity="0.3" d="M184.68 10.88C193.057 13.252 201.197 16.3885 209 20.25C212.51 22.03 216.72 23.81 219.76 26.38C223.45 29.5 226.97 32.8201 230.68 35.9001C239.14 42.9001 251.33 50.6901 262.38 44.7901C270.3 40.5601 276.04 33.22 284.28 29.53C254.488 10.2099 219.728 -0.0483808 184.22 4.8617e-05C170.051 -0.00431335 155.929 1.61628 142.13 4.83005C156.525 4.86983 170.845 6.9059 184.68 10.88Z" fill="#FDD193"/>
<path opacity="0.5" d="M122.54 144.42C121.54 144.56 120.62 144.66 119.66 144.76C119.015 144.774 118.373 144.68 117.76 144.48C115.24 143.35 113.22 141.38 110.45 140.73C106.26 139.73 101.45 139.91 99.45 142.73C99.0785 143.666 99.0188 144.697 99.28 145.67C100.28 149.11 104.1 150.67 107.28 151.22C112.659 152.23 118.199 151.97 123.46 150.46C124.614 150.124 125.72 149.64 126.75 149.02C126.44 147.49 125 146 122.54 144.42Z" fill="#9C1B1F"/>
<path opacity="0.5" d="M190.79 320C190.257 320.015 189.726 320.065 189.2 320.15C186.35 321.51 183.54 322.91 180.81 324.51C180.694 324.578 180.563 324.617 180.428 324.624C180.294 324.631 180.16 324.605 180.037 324.549C179.915 324.494 179.807 324.409 179.724 324.303C179.641 324.197 179.585 324.072 179.56 323.94C175.334 326.828 171.74 330.547 169 334.87C181.26 339.16 195.34 330.18 195.71 317.05C194.35 317.71 193 318.36 191.63 319C191.65 319.122 191.644 319.248 191.611 319.367C191.578 319.487 191.52 319.598 191.44 319.693C191.36 319.788 191.261 319.865 191.149 319.918C191.036 319.971 190.914 319.999 190.79 320Z" fill="#9C1B1F"/>
<g style="mix-blend-mode:multiply" opacity="0.5">
<path d="M184.22 0C82.49 0 0 82.48 0 184.22C0 285.96 82.49 368.45 184.22 368.45C285.95 368.45 368.45 286 368.45 184.22C368.45 82.44 286 0 184.22 0ZM170.47 318.61C140.316 318.612 110.838 309.672 85.765 292.921C60.6918 276.169 41.1491 252.359 29.6082 224.501C18.0673 196.643 15.0467 165.988 20.9283 136.413C26.8098 106.838 41.3294 79.671 62.651 58.348C83.9725 37.0251 111.138 22.5037 140.713 16.6202C170.287 10.7367 200.943 13.7553 228.802 25.2944C256.661 36.8334 280.472 56.3746 297.225 81.4467C313.978 106.519 322.92 135.996 322.92 166.15C322.921 186.171 318.979 205.996 311.318 224.493C303.658 242.99 292.428 259.798 278.272 273.955C264.116 288.112 247.309 299.343 228.812 307.004C210.316 314.666 190.491 318.61 170.47 318.61Z" fill="#AC4836"/>
</g>
<g style="mix-blend-mode:color-dodge" opacity="0.7">
<path d="M43.19 281.6C18.27 242.25 9.71998 207.85 7.99998 181.46C7.99998 181.37 7.99998 181.28 7.99998 181.21C6.9747 172.848 6.58026 164.421 6.81998 156C2.01998 183.54 1.81998 227 29.51 274.91C76.37 355.81 163.72 368.54 207.69 361.02C207.69 361 101 373 43.19 281.6Z" fill="#CBC9B7"/>
</g>
<path opacity="0.5" d="M95.05 91.47C88.21 87.93 80.28 90.34 73.35 92.09C69.92 93 65.94 94 63.29 96.47C61.06 98.61 56.85 101.84 56.73 105.28C56.63 108.42 62.22 111 64.1 113.1C66.38 115.65 68.88 117.04 72.44 116.67C76.0443 116.283 79.4882 114.974 82.44 112.87C84.6409 111.716 86.6131 110.171 88.26 108.31C89.1952 107.158 90.0284 105.927 90.75 104.63C92.43 101.85 94.44 99.63 96.36 97.08C96.6964 96.6431 96.9314 96.137 97.0482 95.5982C97.165 95.0593 97.1605 94.5013 97.0352 93.9644C96.9098 93.4275 96.6666 92.9251 96.3233 92.4937C95.98 92.0623 95.545 91.7127 95.05 91.47Z" fill="#6D1510"/>
<path opacity="0.5" d="M120.22 106.1C118.76 105.45 116.87 106.04 115.43 106.9C115.306 106.966 115.185 107.039 115.07 107.12C114.869 107.26 114.676 107.41 114.49 107.57C114.125 107.863 113.829 108.232 113.624 108.652C113.418 109.072 113.307 109.532 113.3 110C113.3 110.11 113.3 110.21 113.3 110.31C113.392 110.853 113.638 111.358 114.008 111.766C114.379 112.174 114.858 112.467 115.39 112.61C117.65 113.43 120.05 112.03 121.21 110.11C121.436 109.79 121.591 109.425 121.664 109.04C121.737 108.655 121.726 108.259 121.632 107.879C121.538 107.498 121.363 107.142 121.12 106.836C120.876 106.529 120.569 106.278 120.22 106.1Z" fill="#6D1510"/>
<path opacity="0.5" d="M292.31 205.93C290.31 202.74 277.13 207.48 274.92 209.06C271.74 211.32 268.78 213.01 266.09 214.84C264.217 215.594 262.413 216.511 260.7 217.58C256.44 220.29 253.8 224.97 249.57 227.58C247.27 229.02 244.19 230.51 242.86 233.04C240.73 237.04 241.92 242.59 247.6 241.91C253.28 241.23 257.52 237.78 263.48 238.76C267.559 239.537 271.75 239.514 275.82 238.69C282.14 237.24 286.71 229.78 289.26 224.44C290.97 220.89 290.92 217.13 290.97 213.28C291 210.19 294 208.74 292.31 205.93Z" fill="#9C1B1F"/>
</g>
<defs>
<radialGradient id="paint0_radial_47_244" cx="0" cy="0" r="1" gradientUnits="userSpaceOnUse" gradientTransform="translate(94.1639 13.1074) scale(479.77)">
<stop stop-color="#E3F3FC"/>
<stop offset="0.42" stop-color="#E26343"/>
<stop offset="0.76" stop-color="#D01B21"/>
</radialGradient>
<radialGradient id="paint1_radial_47_244" cx="0" cy="0" r="1" gradientUnits="userSpaceOnUse" gradientTransform="translate(211.6 288.98) scale(368.15 368.15)">
<stop stop-color="#E3F3FC"/>
<stop offset="0.42" stop-color="#E26343"/>
<stop offset="0.76" stop-color="#D01B21"/>
</radialGradient>
<radialGradient id="paint2_radial_47_244" cx="0" cy="0" r="1" gradientUnits="userSpaceOnUse" gradientTransform="translate(211.61 289.05) scale(368.24 368.24)">
<stop stop-color="#E3F3FC"/>
<stop offset="0.42" stop-color="#E26343"/>
<stop offset="0.76" stop-color="#D01B21"/>
</radialGradient>
<clipPath id="clip0_47_244">
<rect width="368.45" height="368.45" fill="white"/>
</clipPath>
</defs>
</svg>

<svg xmlns="http://www.w3.org/2000/svg" xmlns:xlink="http://www.w3.org/1999/xlink" viewBox="0 0 368.45 368.45"><defs><style>.cls-1{isolation:isolate;}.cls-2{fill:url(#radial-gradient);}.cls-3{fill:url(#radial-gradient-2);}.cls-4{fill:#ffebcd;}.cls-4,.cls-6{opacity:0.3;}.cls-5{fill:url(#radial-gradient-3);}.cls-6{fill:#fdd193;}.cls-7{fill:#9c1b1f;}.cls-10,.cls-7,.cls-8{opacity:0.5;}.cls-8{fill:#ac4836;mix-blend-mode:multiply;}.cls-9{fill:#cbc9b7;opacity:0.7;mix-blend-mode:color-dodge;}.cls-10{fill:#6d1510;}</style><radialGradient id="radial-gradient" cx="94.17" cy="13.11" r="479.77" gradientTransform="translate(184.22 -76.31) rotate(45)" gradientUnits="userSpaceOnUse"><stop offset="0" stop-color="#e3f3fc"/><stop offset="0.42" stop-color="#e26343"/><stop offset="0.76" stop-color="#d01b21"/></radialGradient><radialGradient id="radial-gradient-2" cx="211.6" cy="288.98" r="368.15" gradientTransform="matrix(1, 0, 0, 1, 0, 0)" xlink:href="#radial-gradient"/><radialGradient id="radial-gradient-3" cx="211.61" cy="289.05" r="368.24" gradientTransform="matrix(1, 0, 0, 1, 0, 0)" xlink:href="#radial-gradient"/></defs><g class="cls-1"><g id="Calque_2" data-name="Calque 2"><g id="Calque_1-2" data-name="Calque 1"><circle class="cls-2" cx="184.22" cy="184.22" r="184.22" transform="translate(-76.31 184.22) rotate(-45)"/><path class="cls-3" d="M313,143.91a1.27,1.27,0,0,1-1.55-.15c-2,2.36-3,6-.39,7.84,2,1.39,4.34,1.69,5.79-.67a8,8,0,0,0,1-6.43C317,142.08,314.71,142.9,313,143.91Z"/><path class="cls-4" d="M324.16,190.27c.31-7.62,14.27-8.17,19.39-8.56,6.25-.51,12.51-.63,18.78-.91,1.82-.08,4,0,6.07-.18a183.3,183.3,0,0,0-13.56-65.9c-10.64,3.17-24.18,7.06-30.88,0-5.38-5.71-3.17-14.17-1.25-20.89,2.42-8.45,2.56-16.85,5.15-24.9-1.76-2.2-3.58-4.36-5.43-6.48a12.71,12.71,0,0,0-1.72,2.84c-2.32,5.35-2.31,11.38-2.26,17.1.1,11.61,1.1,23.22-8.75,31.17-3.09,2.49-6.88,4.43-9.42,7.54-4.41,5.41-2.48,10.76-.53,16.63,2.29,6.92,3.14,12.6.92,19.69-3.12,10-10,16.66-20.49,18.28-9.82,1.52-19.89-.22-29.65,1.51-5.17.91-10.49,2.87-13.39,7.57-3.78,6.12-1.41,12.08-3.43,18.43-3.74,11.77-22,17.32-32.84,17.91-11.29.61-23.58-2.2-34.5,1.55A55.47,55.47,0,0,0,148,233.31c-8.85,7.65-16.25,17.43-26.32,23.57-10.92,6.65-23.72,7.9-36.05,4.76-13.92-3.53-25.71-11.47-38.5-17.64-13.13-6.35-25.7-8.45-38.56-4.15A184.73,184.73,0,0,0,90.3,342.7a33.46,33.46,0,0,1,3.49-.85c7-1.48,14.08-2.55,19.63-7.57,6.48-5.89,8.32-14,8.47-22.52.1-5-.09-9.54,2.75-13.88,7.22-11.12,26.4-14.11,38-17.55,10.82-3.22,23.13-1.92,33.59-6,13.87-5.45,11.69-21.56,17.22-32.74,2.53-5.11,6.52-8.6,11.17-11.77a78.22,78.22,0,0,0,19-17.7c4.85-6.34,9.81-11.4,17.09-14.88,7.93-3.8,16.7-5.08,24.56-9.2,4.76-2.49,9.93-6,15.54-5.53,4.55.39,8.54,5,10.63,8.67,2,3.41,2.52,7.05,4,10.65,3,7.52,9.55,8,16.42,7.79,6.57-.23,12.05.57,16.92,5.43,3.81,3.8,7.43,8.45,13,9.68.71.16,1.44.29,2.15.4.62-2.75,1.17-5.53,1.67-8.31-3.88-2.64-7.17-6.23-11.18-8.69C346.45,203.25,323.58,204.15,324.16,190.27ZM106,328.38a9.18,9.18,0,0,1-2.75,1.36,1.26,1.26,0,0,1-.77,0c-6.14,1.71-13,.46-12.63-5.16.38-6.84,8.93-16.86,16.1-11.8a10.08,10.08,0,0,1,1.72,1.59,1.25,1.25,0,0,1,1.4.31,9.93,9.93,0,0,1,2.47,3.79C112.87,322.84,110,326.33,106,328.38Zm2.16-27.69c-6.41-1.17-18.27-7.16-14.3-15.61,2.17-4.65,7-6,12.2-6.46a25.78,25.78,0,0,1,9.08-.53c.64,0,1.25-.13,1.84-.22a1.49,1.49,0,0,1,1.66,1.09,9.79,9.79,0,0,1,6.42,7.18C127.29,295.62,116.69,302.25,108.14,300.69Zm48-56.51c-2.41,1.87-11.17,5.53-11.78,0-.38-3.4,3.24-7.24,5.8-9a1.17,1.17,0,0,1,1.38,0c2.06-1.8,4.45-2.79,6.47-.66C160.71,237.39,158.89,242.07,156.16,244.18Zm44.33,19.39c-5.26,6.85-18.86,9-26.6,6.12-8.94-3.29-2.86-13.56,2.78-16.45A44.79,44.79,0,0,1,190,248.85a1.1,1.1,0,0,1,1-1.06c3.87-.62,10.05-.88,11.95,3.63C204.79,255.75,203.24,260,200.49,263.57ZM318.14,153.75c-3.1,3-8.41,1.9-10.58-1.78-2.71-4.55,1.17-11.62,6.08-12.93a1.32,1.32,0,0,1,1.69,1.21,4.56,4.56,0,0,1,5.21,3.51C321.48,147,320.63,151.35,318.14,153.75Z"/><path class="cls-5" d="M329,114.45c8,2.26,16.48-.18,24.64-2.49A183.69,183.69,0,0,0,330,71.69c-1.52,6.13-1.64,12.34-3.46,18.8S319,111.65,329,114.45Z"/><path class="cls-4" d="M50.11,203.63c6-1.31,11.75-2.27,15.36-7.74,1.79-2.71,3.42-5.32,6-7.33,6.07-4.74,15,1.23,21.67-1.26,6.29-2.33,4.82-7.43,5.44-12.15.06-.55.73-3-.26-3.58-4.55-2.5-9.91-4.13-15.19-3.65-3.63.33-8.08,1.77-11.76.76-5.89-1.6-11-5-17.38-3.57-7.78,1.8-10.54,0-16.14-5.1-6.37-5.83-15.35-2.55-23.07-1.88-2.51.22-5.73.66-8.08-.51l-4.94,1a184.37,184.37,0,0,0,.05,51.47c2.89-.91,5.8-1.73,8.78-2.38,11.59-2.57,23.36-2.55,35.1-3.18Z"/><path class="cls-6" d="M200.49,135.27c-.53.28-1.05.53-1.59.76a5.29,5.29,0,0,1-2.55.63c-4.49-.25-8-2.33-12.48-.09-3.43,1.76-9.33,2.93-11.07,6.78a18.28,18.28,0,0,0-.89,2.71c3,3.46,6.39,4.75,11.59,4.45a16,16,0,0,1,4.79.15c2.29.61,3.19.25,3.6-1.89s1-3.46,3-4.3c2.37-1,6.78.11,9-1.83a15.08,15.08,0,0,0,.73-1.95,18.2,18.2,0,0,0,.51-2.09C204.76,136.23,203.1,134,200.49,135.27Z"/><path class="cls-7" d="M138.25,162.25a.77.77,0,0,1-.68.4,17.61,17.61,0,0,0-9.71,3.29c-1.71,1.27-5.46,3.28-2.46,4.87a22.63,22.63,0,0,0,9.95,2.67c7.39.18,14.45-2.94,15.16-10.84C146.58,162.54,142.36,162.13,138.25,162.25Z"/><path class="cls-7" d="M233,110a36.11,36.11,0,0,0-3.89,6.11c14.15,3.44,29.08-5,29.1-20.35A46.89,46.89,0,0,0,233,110Z"/><path class="cls-7" d="M111.4,241.78l-.58-.24-.51-.15c-5.49.58-11.55,1.2-16.63,3.55a7.45,7.45,0,0,0-2.22,3.18,20.39,20.39,0,0,0,4.68,2.11,13.59,13.59,0,0,0,8.84,0c1.57-.5,11.51-2.68,9.66-5.38A11.59,11.59,0,0,0,111.4,241.78Z"/><path class="cls-6" d="M184.68,10.88A142.13,142.13,0,0,1,209,20.25c3.51,1.78,7.72,3.56,10.76,6.13,3.69,3.12,7.21,6.44,10.92,9.52,8.46,7,20.65,14.79,31.7,8.89,7.92-4.23,13.66-11.57,21.9-15.26A183.44,183.44,0,0,0,184.22,0a185.31,185.31,0,0,0-42.09,4.83A155.68,155.68,0,0,1,184.68,10.88Z"/><path class="cls-7" d="M122.54,144.42c-1,.14-1.92.24-2.88.34a5.72,5.72,0,0,1-1.9-.28c-2.52-1.13-4.54-3.1-7.31-3.75-4.19-1-9-.82-11,2a4.68,4.68,0,0,0-.17,2.94c1,3.44,4.82,5,8,5.55a35.14,35.14,0,0,0,16.18-.76,13.92,13.92,0,0,0,3.29-1.44C126.44,147.49,125,146,122.54,144.42Z"/><path class="cls-7" d="M190.79,320a12.05,12.05,0,0,0-1.59.15c-2.85,1.36-5.66,2.76-8.39,4.36a.84.84,0,0,1-1.25-.57A37.65,37.65,0,0,0,169,334.87c12.26,4.29,26.34-4.69,26.71-17.82-1.36.66-2.71,1.31-4.08,1.95A.86.86,0,0,1,190.79,320Z"/><path class="cls-8" d="M184.22,0C82.49,0,0,82.48,0,184.22S82.49,368.45,184.22,368.45,368.45,286,368.45,184.22,286,0,184.22,0ZM170.47,318.61A152.46,152.46,0,1,1,322.92,166.15,152.45,152.45,0,0,1,170.47,318.61Z"/><path class="cls-9" d="M43.19,281.6C18.27,242.25,9.72,207.85,8,181.46c0-.09,0-.18,0-.25A167.89,167.89,0,0,1,6.82,156c-4.8,27.54-5,71,22.69,118.91,46.86,80.9,134.21,93.63,178.18,86.11C207.69,361,101,373,43.19,281.6Z"/><path class="cls-10" d="M95.05,91.47c-6.84-3.54-14.77-1.13-21.7.62C69.92,93,65.94,94,63.29,96.47c-2.23,2.14-6.44,5.37-6.56,8.81-.1,3.14,5.49,5.72,7.37,7.82,2.28,2.55,4.78,3.94,8.34,3.57a21.11,21.11,0,0,0,10-3.8,20.45,20.45,0,0,0,5.82-4.56,25.56,25.56,0,0,0,2.49-3.68c1.68-2.78,3.69-5,5.61-7.55A3.72,3.72,0,0,0,95.05,91.47Z"/><path class="cls-10" d="M120.22,106.1c-1.46-.65-3.35-.06-4.79.8a3.48,3.48,0,0,0-.36.22,7.32,7.32,0,0,0-.58.45A3.18,3.18,0,0,0,113.3,110c0,.11,0,.21,0,.31a2.88,2.88,0,0,0,2.09,2.3c2.26.82,4.66-.58,5.82-2.5A2.73,2.73,0,0,0,120.22,106.1Z"/><path class="cls-7" d="M292.31,205.93c-2-3.19-15.18,1.55-17.39,3.13-3.18,2.26-6.14,3.95-8.83,5.78a34.63,34.63,0,0,0-5.39,2.74c-4.26,2.71-6.9,7.39-11.13,10-2.3,1.44-5.38,2.93-6.71,5.46-2.13,4-.94,9.55,4.74,8.87s9.92-4.13,15.88-3.15a32,32,0,0,0,12.34-.07c6.32-1.45,10.89-8.91,13.44-14.25,1.71-3.55,1.66-7.31,1.71-11.16C291,210.19,294,208.74,292.31,205.93Z"/></g></g></g></svg>
